X:1
T:Title
%%score ( 1 2 ) { 3 | 4 }
L:1/8
Q:1/4=95
M:4/4
K:G
V:1 treble nm="Grand Piano, Soprano"
V:2 treble 
V:3 bass nm="Choir Pad, Bass"
V:4 bass 
V:1
 BA G2 [DG]>[DG] [DG][B,D] | [CE][CF] [B,G]2 B>A GD | [Ac]>[GB] [FA]2 [FA]>[FA] [FA][DG] | %3
w: By~James~A.~Brown * * * * * *|||
 [CF][B,G] [DA]2 c>B AD | [GB][Ac] [Bd]2 [Bd]>[Ad] [Gd][GB] | [GB][DA] [DG]2 A>B cE | %6
w: |||
 [Ec][Ec] [DB]2 [DB]>[DB] [DB][DA] | [DG][DF] [DG]6 | [DB][Dc] [Gd]2 [Gd]>[Gd] [Gd][GB] | z2 d6 | %10
w: ||||
 [GB][FA] [EG]2 [DG]>[DG] [DG]G | z2 A6 | [GB][Gc] [Gd]2 [Gd]>[Ge] [Gd]<[GB] | %13
w: |||
 [GB][DA] [DG]2 [DA]>[DB] [Ec]<[CE] | [Ec][Ec] [DB]2 [DB]>[DB] [DB][DA] | [DG][DF] [DG]6- | %16
w: |||
 [DG]2 z2 z4 |] %17
w: |
V:2
 x8 | x8 | x8 | x8 | x8 | x8 | x8 | x8 | x8 | [Gc][Ge]GG F>A G2 | x8 | [DF][DG] F2 G>G F2 | x8 | %13
 x8 | x8 | x8 | x8 |] %17
V:3
 B,A, G,2 B,>B, B,G, | F,A, G,2 B,>A, G,D, | C>B, A,2[K:treble] C>C CB, | %3
 A,[K:bass]G, F,2 C>B, A,D, | B,[K:treble]C D2 D>C B,D | DC[K:bass] B,2 A,>B, CE, | %6
 G,G, G,2 G,>G, G,C | B,A, B,6 | G,A, B,2 B,>B, B,[K:treble]D | ECB,B, A,>C B,2 | %10
 DC[K:bass] B,2 B,>B, B,D | CB, D2 ^C>C D2 | G,A, B,2 B,>C G,<[K:treble]D | %13
 DC B,2 C>D C<[K:bass]G, | G,G, G,2 G,>G, G,C | B,A, B,6- | B,2 z2 z4 |] %17
V:4
 z4 G,>G, .G,2 | D,D, z2 z4 | A,>G, F,2 D,>D, D,D, | D,D, D,2 z4 | G,A, B,2 G,>G, G,G, | %5
 G,G, G,2 z4 | C,C, D,2 D,>D, D,D, | D,D, [G,,G,]6 | z G, G,2 G,>G, G,G, | G,G,G,G, D,>D, G,2 | %10
 G,D, E,2 B,,>D, G,B, | A,G, D,2 A,,>A,, D,2 | z G, G,2 G,>G, z/ G,3/2 | G,G, G,2 G,>G, C,<C, | %14
 C,C, D,2 D,>D, D,D, | D,D, [G,,G,]6- | [G,,G,]2 z2 z4 |] %17

